epam-assets/icon-sources/18/table-column_plus_after.svg

<svg xmlns="http://www.w3.org/2000/svg" width="18" height="18" fill="none" viewBox="0 0 18 18">
  <path fill="#6C6F80" fill-rule="evenodd" d="M8.25 1.5A1.5 1.5 0 0 1 9.75 3v12a1.5 1.5 0 0 1-1.5 1.5H1.5v-15h6.75ZM3 7.5v3h5.25v-3H3ZM3 12v3h5.25v-3H3Zm0-9v3h5.25V3H3Zm8.25 5.25h2.25V6H15v2.25h2.25v1.5H15V12h-1.5V9.75h-2.25v-1.5Z" clip-rule="evenodd"/>
</svg>

<svg width="18" height="18" viewBox="0 0 18 18" fill="none" xmlns="http://www.w3.org/2000/svg">
<g id="18/table-column_plus_after">
<path id="icon" fill-rule="evenodd" clip-rule="evenodd" d="M8.25 1.5C9.07843 1.5 9.75 2.17157 9.75 3V15C9.75 15.8284 9.07843 16.5 8.25 16.5H1.5V1.5H8.25ZM3 7.5V10.5H8.25V7.5H3ZM3 12V15H8.25V12H3ZM3 3V6H8.25V3H3ZM11.25 8.25H13.5V6H15V8.25H17.25V9.75H15V12H13.5V9.75H11.25V8.25Z" fill="#6C6F80"/>
</g>
</svg>
